X:1
T:Ecce panis angelorum - Lotti
T:#
%%score [ 1 2 3 4 ]
L:1/8
Q:1/4=90
M:4/4
K:C
V:1 treble nm="Soprano I" snm="S I"
V:2 treble nm="Soprano II" snm="S II"
V:3 treble nm="Alto I" snm="A I"
V:4 treble nm="Alto II" snm="A II"
V:1
"^Ecce panis angelorum""^adagio"!pp! e4"^Antonio Lotti\n(1667-1740)" e4 | d4 d4 | e4 e4 | e8 | %4
w: Ec- ce|pa- nis|an- ge-|lo-|
 !fermata!e8 || z2 e4 e2 | e4 e4 |[M:4/4]!<(! ^d4 e4!<)! | (e4 ^d4) |!>(! e8!>)! | z2 e4 e2 | %11
w: rum,|Fa- ctus|ci- bus|vi- a-|to\- *|rum:|Ve- re|
 e4 e4 |!<(! =f4 f4!<)! | e8 |!>(! !fermata!f8!>)! || z2!f! f4 f2 | f4 e4 | z2!mf! e4 e2 | e4 d4 | %19
w: pa- nis|Fi- li-|o-|rum:|Non mit-|ten- dus,|non mit-|ten- dus|
!p! (d4 c4 |!>(! B4)!>)! B4 | !fermata!^c8 |] %22
w: ca\- *|* ni-|bus.|
V:2
!pp! c4 c4 | B4 B4 | B4 B4 | c8 | !fermata!B8 || z2 B4 B2 | c4 c4 |[M:4/4]!<(! B4 B4!<)! | B8 | %9
w: Ec- ce|pa- nis|an- ge-|lo-|rum,|Fa- ctus|ci- bus|vi- a-|to-|
!>(! B8!>)! | z2 c4 c2 | ^c4 c4 |!<(! d4 d4!<)! | (d4 ^c4) |!>(! !fermata!d8!>)! || z2!f! d4 d2 | %16
w: rum:|Ve- re|pa- nis|Fi- li-|o\- *|rum:|Non mit-|
 d4 c4 | z2!mf! c4 c2 | _B4 A4 |!p! (A8- |!>(! A2 ^G^F!>)! G3) G | !fermata!A8 |] %22
w: ten- dus,|non mit-|ten- dus|ca\-|* * * * ni-|bus.|
V:3
!pp! A4 A4 | A4 (^G2 ^F2) | ^G4 G4 | A8 | !fermata!^G8 || z2 ^G4 G2 | A4 A4 | %7
w: Ec- ce|pa- nis *|an- ge-|lo-|rum,|Fa- ctus|ci- bus|
[M:4/4]!<(! A4 G4!<)! | ^F8 |!>(! G8!>)! | z2 G4 G2 | A4 A4 |!<(! A4 A4!<)! | A8 | %14
w: vi- a-|to-|rum:|Ve- re|pa- nis|Fi- li-|o-|
!>(! !fermata!A8!>)! || z2!f! A4 A2 | G4 G4 | z2!mf! G4 G2 | G4 F4 |!p! E8 |!>(! E8!>)! | E8 |] %22
w: rum:|Non mit-|ten- dus,|non mit-|ten- dus|ca-|ni-|bus.|
V:4
!pp! A,4 A,4 | B,4 B,4 | E4 E4 | A,8 | E8 || z2 E4 E2 | A,4 A,4 |[M:4/4]!<(! B,4 E4!<)! | B,8 | %9
w: Ec- ce|pa- nis|an- ge-|lo-|rum,|Fa- ctus|ci- bus|vi- a-|to-|
!>(! E8!>)! | z2 C4 C2 | A,4 A4 |!<(! =F4 D4!<)! | A,8 |!>(! !fermata!D8!>)! || z2!f! D4 D2 | %16
w: rum:|Ve- re|pa- nis|Fi- li-|o-|rum:|Non mit-|
 B,4 C4 | z2!mf! C4 C2 | ^C4 D4 |!p! A,8 |!>(! E8!>)! | A,8 |] %22
w: ten- dus,|non mit-|ten- dus|ca-|ni-|bus.|

